.local/share/icons/Gruvbox-Plus-Dark/panel/16/motrix-tray.svg

<svg width="16" height="16" version="1.1" xmlns="http://www.w3.org/2000/svg">
  <defs>
    <style id="current-color-scheme" type="text/css">.ColorScheme-Text { color:#ebdbb2; } .ColorScheme-Highlight { color:#458588; } .ColorScheme-NeutralText { color:#fe8019; } .ColorScheme-PositiveText { color:#689d6a; } .ColorScheme-NegativeText { color:#fb4934; }</style>
  </defs>
  <path class="ColorScheme-Text" d="m1.875 1c-0.4848 0-0.875 0.3902-0.875 0.875v12.25c0 0.4848 0.3902 0.875 0.875 0.875h12.25c0.4848 0 0.875-0.3902 0.875-0.875v-12.25c0-0.4848-0.3902-0.875-0.875-0.875h-2.125v2.299c0 0.3878-0.3499 0.7012-0.7539 0.7012h-6.492c-0.404 0-0.7539-0.3134-0.7539-0.7012v-2.299h-2.125zm3.125 1v1h2v-1h-2zm4 0v1h2v-1h-2zm-6 9h3c0.554 0 1 0.446 1 1v1 1h-1v-2h-1v2h-1v-2h-1v2h-1v-1-1c0-0.554 0.446-1 1-1zm8 0h2c0.554 0 1 0.446 1 1v1c0 0.554-0.446 1-1 1h-2c-0.554 0-1-0.446-1-1v-1c0-0.554 0.446-1 1-1zm-2.5 1c0.277 0 0.5 0.223 0.5 0.5s-0.223 0.5-0.5 0.5-0.5-0.223-0.5-0.5 0.223-0.5 0.5-0.5zm2.5 0v1h2v-1h-2z" fill="currentColor"/>
</svg>

<svg xmlns="http://www.w3.org/2000/svg" width="16" height="16" version="1.1">
 <defs>
  <style id="current-color-scheme" type="text/css">
   .ColorScheme-Text { color:#ebdbb2; } .ColorScheme-Highlight { color:#458588; }
  </style>
 </defs>
 <path style="fill:currentColor" class="ColorScheme-Text" d="M 1.875 1 C 1.39025 1 1 1.39025 1 1.875 L 1 14.125 C 1 14.60975 1.39025 15 1.875 15 L 14.125 15 C 14.60975 15 15 14.60975 15 14.125 L 15 1.875 C 15 1.39025 14.60975 1 14.125 1 L 12 1 L 12 3.2988281 C 12 3.6866281 11.650052 4 11.246094 4 L 4.7539062 4 C 4.3499485 4 4 3.6866281 4 3.2988281 L 4 1 L 1.875 1 z M 5 2 L 5 3 L 7 3 L 7 2 L 5 2 z M 9 2 L 9 3 L 11 3 L 11 2 L 9 2 z M 3 11 L 6 11 C 6.554 11 7 11.446 7 12 L 7 13 L 7 14 L 6 14 L 6 12 L 5 12 L 5 14 L 4 14 L 4 12 L 3 12 L 3 14 L 2 14 L 2 13 L 2 12 C 2 11.446 2.446 11 3 11 z M 11 11 L 13 11 C 13.554 11 14 11.446 14 12 L 14 13 C 14 13.554 13.554 14 13 14 L 11 14 C 10.446 14 10 13.554 10 13 L 10 12 C 10 11.446 10.446 11 11 11 z M 8.5 12 C 8.777 12 9 12.223 9 12.5 C 9 12.777 8.777 13 8.5 13 C 8.223 13 8 12.777 8 12.5 C 8 12.223 8.223 12 8.5 12 z M 11 12 L 11 13 L 13 13 L 13 12 L 11 12 z"/>
</svg>
